src/icons/service-kubernetes.svg

<?xml version="1.0" encoding="UTF-8"?>
<svg width="14px" height="14px" viewBox="0 0 14 14" version="1.1" xmlns="http://www.w3.org/2000/svg" xmlns:xlink="http://www.w3.org/1999/xlink">
    <!-- Generator: Sketch 59 (86127) - https://sketch.com -->
    <title>HDL/Icon/Standard/Service/kubernetes</title>
    <desc>Created with Sketch.</desc>
    <g id="Colors" stroke="none" stroke-width="1" fill="none" fill-rule="evenodd">
        <g id="Service-icons" transform="translate(-122.000000, -1112.000000)">
            <g id="Kubernetes" transform="translate(101.000000, 1094.000000)">
                <g id="HDL/Icon/Standard/Service/kubernetes" transform="translate(21.000000, 18.000000)">
                    <g id="Kubernetes">
                        <path d="M6.973906,0.4476 C6.873906,0.4476 6.773906,0.4476 6.673906,0.5476 L1.973906,2.7476 C1.773906,2.8476 1.573906,3.0476 1.473906,3.3476 L0.273906,8.3476 C0.173906,8.5476 0.273906,8.8476 0.373906,9.0476 C0.373906,9.0476 0.373906,9.0476 0.473906,9.1476 L3.673906,13.1476 C3.873906,13.3476 4.073906,13.4476 4.373906,13.4476 L9.573906,13.4476 C9.873906,13.4476 10.073906,13.3476 10.273906,13.1476 L13.473906,9.1476 C13.673906,8.9476 13.673906,8.6476 13.673906,8.4476 L12.473906,3.4476 C12.373906,3.1476 12.273906,2.9476 11.973906,2.8476 L7.273906,0.6476 C7.273906,0.5476 7.073906,0.4476 6.973906,0.4476 L6.973906,0.4476 Z" id="Path" fill="#326CE5" fill-rule="nonzero"></path>
                        <path d="M6.973906,2.1476 C6.773906,2.1476 6.673906,2.2476 6.673906,2.4476 L6.673906,2.5476 L6.673906,2.8476 L6.673906,3.3476 C6.673906,3.4476 6.573906,3.4476 6.573906,3.4476 L6.573906,3.5476 C6.373906,3.5476 6.273906,3.5476 6.073906,3.6476 C5.373906,3.8476 4.673906,4.1476 4.273906,4.6476 C4.273906,4.6476 4.173906,4.5476 4.173906,4.5476 C4.173906,4.5476 4.073906,4.5476 3.973906,4.5476 C3.873906,4.4476 3.773906,4.3476 3.573906,4.2476 C3.473906,4.1476 3.473906,4.1476 3.373906,4.0476 C3.373906,4.0476 3.373906,4.0476 3.273906,4.0476 C3.173906,4.0476 3.173906,3.9476 3.073906,3.9476 C2.973906,3.9476 2.873906,3.9476 2.873906,4.0476 C2.773906,4.1476 2.773906,4.3476 2.973906,4.4476 L3.073906,4.4476 C3.173906,4.5476 3.273906,4.5476 3.273906,4.5476 C3.473906,4.6476 3.573906,4.7476 3.673906,4.8476 C3.673906,4.8476 3.773906,4.9476 3.773906,5.0476 L3.873906,5.1476 C3.373906,5.8476 3.173906,6.7476 3.273906,7.6476 L3.173906,7.6476 C3.173906,7.6476 3.073906,7.7476 3.073906,7.7476 C2.973906,7.7476 2.773906,7.8476 2.573906,7.8476 C2.473906,7.8476 2.373906,7.8476 2.273906,7.8476 L2.173906,7.8476 C1.973906,7.8476 1.873906,8.0476 1.973906,8.1476 C1.973906,8.2476 2.173906,8.3476 2.373906,8.3476 L2.473906,8.3476 C2.573906,8.3476 2.673906,8.2476 2.773906,8.2476 C2.973906,8.1476 3.073906,8.1476 3.273906,8.1476 C3.373906,8.1476 3.373906,8.1476 3.473906,8.2476 L3.573906,8.2476 C3.873906,9.1476 4.473906,9.8476 5.173906,10.2476 L5.073906,10.3476 L5.073906,10.5476 C4.973906,10.6476 4.973906,10.8476 4.773906,11.0476 C4.673906,11.1476 4.673906,11.1476 4.673906,11.2476 L4.673906,11.3476 C4.573906,11.5476 4.673906,11.6476 4.773906,11.7476 C4.873906,11.8476 5.073906,11.7476 5.173906,11.5476 L5.173906,11.4476 C5.173906,11.3476 5.273906,11.2476 5.273906,11.1476 C5.373906,10.9476 5.373906,10.7476 5.473906,10.6476 C5.473906,10.6476 5.573906,10.6476 5.573906,10.5476 L5.673906,10.4476 C6.273906,10.6476 7.073906,10.7476 7.773906,10.6476 C7.973906,10.6476 8.073906,10.5476 8.273906,10.5476 C8.273906,10.5476 8.373906,10.6476 8.373906,10.6476 C8.373906,10.6476 8.473906,10.6476 8.473906,10.7476 C8.573906,10.8476 8.573906,11.0476 8.673906,11.2476 C8.673906,11.3476 8.673906,11.4476 8.773906,11.5476 L8.773906,11.6476 C8.873906,11.8476 8.973906,11.8476 9.173906,11.8476 C9.273906,11.7476 9.373906,11.6476 9.273906,11.4476 L9.273906,11.3476 C9.273906,11.2476 9.173906,11.2476 9.173906,11.1476 C9.073906,10.9476 8.973906,10.8476 8.973906,10.7476 C8.973906,10.6476 8.973906,10.6476 8.973906,10.5476 L8.973906,10.4476 C9.773906,9.9476 10.273906,9.2476 10.573906,8.4476 L10.673906,8.4476 C10.673906,8.4476 10.773906,8.3476 10.873906,8.3476 C10.973906,8.3476 11.173906,8.4476 11.373906,8.4476 C11.473906,8.4476 11.573906,8.5476 11.673906,8.5476 L11.773906,8.5476 C11.973906,8.5476 12.073906,8.4476 12.173906,8.3476 C12.173906,8.2476 12.073906,8.0476 11.973906,8.0476 L11.873906,8.0476 C11.773906,8.0476 11.673906,8.0476 11.573906,8.0476 C11.373906,8.0476 11.173906,8.0476 11.073906,7.9476 C10.973906,7.9476 10.973906,7.8476 10.973906,7.8476 L10.873906,7.8476 C10.973906,7.4476 10.873906,6.9476 10.773906,6.5476 C10.673906,6.1476 10.473906,5.6476 10.273906,5.3476 C10.273906,5.3476 10.373906,5.2476 10.373906,5.2476 C10.373906,5.1476 10.373906,5.1476 10.473906,5.0476 C10.573906,4.9476 10.673906,4.8476 10.873906,4.7476 C10.973906,4.7476 11.073906,4.6476 11.073906,4.6476 L11.173906,4.6476 C11.273906,4.5476 11.373906,4.3476 11.273906,4.2476 C11.173906,4.1476 10.973906,4.1476 10.873906,4.2476 C10.873906,4.2476 10.873906,4.2476 10.773906,4.2476 C10.673906,4.3476 10.673906,4.3476 10.573906,4.4476 C10.473906,4.5476 10.273906,4.7476 10.173906,4.7476 C10.073906,4.7476 10.073906,4.7476 9.973906,4.7476 L9.873906,4.8476 C9.273906,4.2476 8.473906,3.8476 7.573906,3.7476 L7.573906,3.6476 C7.573906,3.6476 7.473906,3.5476 7.473906,3.5476 C7.473906,3.3476 7.473906,3.2476 7.473906,3.0476 C7.473906,2.9476 7.473906,2.8476 7.473906,2.7476 L7.473906,2.6476 C7.273906,2.3476 7.173906,2.1476 6.973906,2.1476 Z M6.673906,4.3476 L6.573906,5.8476 C6.573906,5.9476 6.473906,6.0476 6.373906,6.0476 C6.273906,6.0476 6.273906,6.0476 6.273906,6.0476 L5.073906,5.1476 C5.473906,4.7476 5.873906,4.5476 6.473906,4.3476 L6.673906,4.3476 Z M7.373906,4.3476 C7.973906,4.4476 8.573906,4.7476 9.073906,5.1476 L7.873906,5.9476 C7.773906,6.0476 7.573906,6.0476 7.573906,5.9476 C7.573906,5.9476 7.473906,5.8476 7.473906,5.8476 L7.373906,4.3476 Z M4.573906,5.7476 L5.673906,6.7476 C5.773906,6.8476 5.773906,6.9476 5.673906,7.0476 C5.673906,7.0476 5.573906,7.1476 5.573906,7.1476 L4.173906,7.5476 C4.073906,6.8476 4.173906,6.2476 4.573906,5.7476 Z M9.473906,5.7476 C9.673906,6.0476 9.773906,6.3476 9.873906,6.6476 C9.973906,6.9476 9.973906,7.2476 9.973906,7.5476 L8.573906,7.1476 C8.473906,7.1476 8.373906,6.9476 8.373906,6.8476 C8.373906,6.7476 8.373906,6.7476 8.473906,6.7476 L9.473906,5.7476 Z M6.773906,6.7476 L7.173906,6.7476 L7.473906,7.0476 L7.373906,7.4476 L6.973906,7.6476 L6.573906,7.4476 L6.473906,7.0476 L6.773906,6.7476 Z M8.173906,7.9476 C8.273906,7.9476 8.273906,7.9476 8.173906,7.9476 L9.673906,8.1476 C9.473906,8.7476 9.073906,9.2476 8.473906,9.6476 L7.873906,8.2476 C7.973906,8.1476 7.973906,8.0476 8.173906,7.9476 L8.173906,7.9476 Z M5.773906,7.9476 C5.873906,7.9476 5.973906,8.0476 5.973906,8.1476 L5.973906,8.3476 L5.373906,9.7476 C4.873906,9.4476 4.473906,8.9476 4.173906,8.2476 L5.773906,7.9476 Z M6.973906,8.5476 L7.073906,8.5476 C7.073906,8.5476 7.173906,8.6476 7.173906,8.6476 L7.873906,9.9476 C7.773906,9.9476 7.673906,10.0476 7.573906,10.0476 C7.073906,10.1476 6.473906,10.1476 5.973906,9.9476 L6.673906,8.6476 C6.873906,8.6476 6.873906,8.5476 6.973906,8.5476 L6.973906,8.5476 Z" id="Shape" stroke="#FFFFFF" stroke-width="0.25" fill="#FFFFFF" fill-rule="nonzero"></path>
                    </g>
                </g>
            </g>
        </g>
    </g>
</svg>

<?xml version="1.0" encoding="utf-8"?>
<!-- Generator: Adobe Illustrator 20.1.0, SVG Export Plug-In . SVG Version: 6.00 Build 0)  -->
<svg version="1.1" id="Layer_1" xmlns="http://www.w3.org/2000/svg" xmlns:xlink="http://www.w3.org/1999/xlink" x="0px" y="0px"
	 viewBox="0 0 14 14" style="enable-background:new 0 0 14 14;" xml:space="preserve">
<style type="text/css">
	.st0{fill:#326CE5;}
	.st1{fill:#FFFFFF;stroke:#FFFFFF;stroke-width:0.25;}
</style>
<title>HDL/Icon/Standard/Service/kubernetes</title>
<desc>Created with Sketch.</desc>
<g id="Colors">
	<g id="Service-icons" transform="translate(-122.000000, -1112.000000)">
		<g id="Kubernetes_1_" transform="translate(101.000000, 1094.000000)">
			<g id="HDL_x2F_Icon_x2F_Standard_x2F_Service_x2F_kubernetes" transform="translate(21.000000, 18.000000)">
				<g id="Kubernetes">
					<path id="Path" class="st0" d="M7,0.4c-0.1,0-0.2,0-0.3,0.1L2,2.7C1.8,2.8,1.6,3,1.5,3.3l-1.2,5C0.2,8.5,0.3,8.8,0.4,9
						c0,0,0,0,0.1,0.1l3.2,4c0.2,0.2,0.4,0.3,0.7,0.3h5.2c0.3,0,0.5-0.1,0.7-0.3l3.2-4c0.2-0.2,0.2-0.5,0.2-0.7l-1.2-5
						c-0.1-0.3-0.2-0.5-0.5-0.6L7.3,0.6C7.3,0.5,7.1,0.4,7,0.4L7,0.4z"/>
					<path id="Shape" class="st1" d="M7,2.1c-0.2,0-0.3,0.1-0.3,0.3v0.1v0.3v0.5c0,0.1-0.1,0.1-0.1,0.1v0.1c-0.2,0-0.3,0-0.5,0.1
						c-0.7,0.2-1.4,0.5-1.8,1L4.2,4.5c0,0-0.1,0-0.2,0C3.9,4.4,3.8,4.3,3.6,4.2C3.5,4.1,3.5,4.1,3.4,4c0,0,0,0-0.1,0
						S3.2,3.9,3.1,3.9C3,3.9,2.9,3.9,2.9,4C2.8,4.1,2.8,4.3,3,4.4h0.1c0.1,0.1,0.2,0.1,0.2,0.1c0.2,0.1,0.3,0.2,0.4,0.3
						c0,0,0.1,0.1,0.1,0.2l0.1,0.1C3.4,5.8,3.2,6.7,3.3,7.6H3.2L3.1,7.7C3,7.7,2.8,7.8,2.6,7.8c-0.1,0-0.2,0-0.3,0H2.2
						C2,7.8,1.9,8,2,8.1c0,0.1,0.2,0.2,0.4,0.2h0.1c0.1,0,0.2-0.1,0.3-0.1C3,8.1,3.1,8.1,3.3,8.1c0.1,0,0.1,0,0.2,0.1h0.1
						c0.3,0.9,0.9,1.6,1.6,2l-0.1,0.1v0.2C5,10.6,5,10.8,4.8,11c-0.1,0.1-0.1,0.1-0.1,0.2v0.1c-0.1,0.2,0,0.3,0.1,0.4
						c0.1,0.1,0.3,0,0.4-0.2v-0.1c0-0.1,0.1-0.2,0.1-0.3c0.1-0.2,0.1-0.4,0.2-0.5c0,0,0.1,0,0.1-0.1l0.1-0.1
						c0.6,0.2,1.4,0.3,2.1,0.2c0.2,0,0.3-0.1,0.5-0.1l0.1,0.1c0,0,0.1,0,0.1,0.1c0.1,0.1,0.1,0.3,0.2,0.5c0,0.1,0,0.2,0.1,0.3v0.1
						c0.1,0.2,0.2,0.2,0.4,0.2c0.1-0.1,0.2-0.2,0.1-0.4v-0.1c0-0.1-0.1-0.1-0.1-0.2C9.1,10.9,9,10.8,9,10.7c0-0.1,0-0.1,0-0.2v-0.1
						c0.8-0.5,1.3-1.2,1.6-2h0.1c0,0,0.1-0.1,0.2-0.1c0.1,0,0.3,0.1,0.5,0.1c0.1,0,0.2,0.1,0.3,0.1h0.1c0.2,0,0.3-0.1,0.4-0.2
						C12.2,8.2,12.1,8,12,8h-0.1c-0.1,0-0.2,0-0.3,0c-0.2,0-0.4,0-0.5-0.1C11,7.9,11,7.8,11,7.8h-0.1c0.1-0.4,0-0.9-0.1-1.3
						c-0.1-0.4-0.3-0.9-0.5-1.2l0.1-0.1c0-0.1,0-0.1,0.1-0.2c0.1-0.1,0.2-0.2,0.4-0.3c0.1,0,0.2-0.1,0.2-0.1h0.1
						c0.1-0.1,0.2-0.3,0.1-0.4c-0.1-0.1-0.3-0.1-0.4,0c0,0,0,0-0.1,0c-0.1,0.1-0.1,0.1-0.2,0.2s-0.3,0.3-0.4,0.3c-0.1,0-0.1,0-0.2,0
						L9.9,4.8c-0.6-0.6-1.4-1-2.3-1.1V3.6L7.5,3.5c0-0.2,0-0.3,0-0.5c0-0.1,0-0.2,0-0.3V2.6C7.3,2.3,7.2,2.1,7,2.1z M6.7,4.3
						L6.6,5.8C6.6,5.9,6.5,6,6.4,6S6.3,6,6.3,6L5.1,5.1c0.4-0.4,0.8-0.6,1.4-0.8H6.7z M7.4,4.3C8,4.4,8.6,4.7,9.1,5.1L7.9,5.9
						C7.8,6,7.6,6,7.6,5.9L7.5,5.8L7.4,4.3z M4.6,5.7l1.1,1c0.1,0.1,0.1,0.2,0,0.3L5.6,7.1L4.2,7.5C4.1,6.8,4.2,6.2,4.6,5.7z
						 M9.5,5.7C9.7,6,9.8,6.3,9.9,6.6C10,6.9,10,7.2,10,7.5L8.6,7.1c-0.1,0-0.2-0.2-0.2-0.3s0-0.1,0.1-0.1L9.5,5.7z M6.8,6.7h0.4
						L7.5,7L7.4,7.4L7,7.6L6.6,7.4L6.5,7L6.8,6.7z M8.2,7.9C8.3,7.9,8.3,7.9,8.2,7.9l1.5,0.2C9.5,8.7,9.1,9.2,8.5,9.6L7.9,8.2
						C8,8.1,8,8,8.2,7.9L8.2,7.9z M5.8,7.9C5.9,7.9,6,8,6,8.1v0.2L5.4,9.7C4.9,9.4,4.5,8.9,4.2,8.2L5.8,7.9z M7,8.5L7,8.5l0.2,0.1
						l0.7,1.3C7.8,9.9,7.7,10,7.6,10C7.1,10.1,6.5,10.1,6,9.9l0.7-1.3C6.9,8.6,6.9,8.5,7,8.5L7,8.5z"/>
				</g>
			</g>
		</g>
	</g>
</g>
</svg>
